X:256
T:Katy Hill
C:Traditional
N:Transcribed by Kim Davis
R:bluegrass
L:1/8
Q:1/4=240
M:4/4
K:G
z8 |: "G"DE GA BG ^A=A | GB AG EF GE | DE GA BG ^A=A | GB AG "Em"E4 | "G"DE GA BG ^A=A | 
GB AG EF GE | "D"D2 d2 de dB | AG ED "G"G4 :|: "G"BA GB AG EG | DE GA Bd g2 | 
BA GB AG EG | DE GB AF G2 | BA GB AG EG | DE GA Bd ga | eg ed Bd BA | "D"GE D"G"G z4 :| z8 | 


